X:1
T:The Caissons Go Rolling Along
M:4/4
L:1/8
K:F
 GE| G2 GE G2 GE| G3/2 A/2 GE G2 EF| G F2 DG F2 D| C6| GE| G2 GE G2 GE|\
 G3/2 A/2 GE G2 EF| G F2 DG F2 D| C6| GG| c2 c2 =B2 G3/2 G/2| A=B cA G4|\
 c c2 =BA Bc A| d6| GG| c2 c2 =B4| A=B cA G2 EF| G F2 DG F2 D| C6||\
